icons/box-add.svg

<svg xmlns="http://www.w3.org/2000/svg" viewBox="0 0 24 24" fill="currentColor">
  <path d="M7 3.75C5.21421 3.75 3.75 5.21421 3.75 7v10c0 1.7858 1.46421 3.25 3.25 3.25.41421 0 .75.3358.75.75s-.33579.75-.75.75c-2.61421 0-4.75-2.1358-4.75-4.75V7c0-2.61421 2.13579-4.75 4.75-4.75h10c2.6142 0 4.75 2.13579 4.75 4.75v5c0 .4142-.3358.75-.75.75s-.75-.3358-.75-.75V7c0-1.78579-1.4642-3.25-3.25-3.25h-1.25V7.5c0 1.21421-1.0358 2.25-2.25 2.25h-3c-1.21421 0-2.25-1.03579-2.25-2.25V3.75H7Zm2.75 0V7.5c0 .38579.3642.75.75.75h3c.3858 0 .75-.36421.75-.75V3.75h-4.5ZM16.1499 16c0-.4142-.3358-.75-.75-.75s-.75.3358-.75.75v1.6499H13c-.4142 0-.75.3358-.75.75s.3358.75.75.75h1.6499V20.9c0 .4142.3358.75.75.75s.75-.3358.75-.75v-1.7501H17.9c.4142 0 .75-.3358.75-.75s-.3358-.75-.75-.75h-1.7501V16Z"/>
</svg>

<svg width="24" height="24" viewBox="0 0 24 24" fill="none" xmlns="http://www.w3.org/2000/svg">
<path fill-rule="evenodd" clip-rule="evenodd" d="M7 3.75C5.21421 3.75 3.75 5.21421 3.75 7V17C3.75 18.7858 5.21421 20.25 7 20.25C7.41421 20.25 7.75 20.5858 7.75 21C7.75 21.4142 7.41421 21.75 7 21.75C4.38579 21.75 2.25 19.6142 2.25 17V7C2.25 4.38579 4.38579 2.25 7 2.25H9H15H17C19.6142 2.25 21.75 4.38579 21.75 7V12C21.75 12.4142 21.4142 12.75 21 12.75C20.5858 12.75 20.25 12.4142 20.25 12V7C20.25 5.21421 18.7858 3.75 17 3.75H15.75V7.5C15.75 8.71421 14.7142 9.75 13.5 9.75H10.5C9.28579 9.75 8.25 8.71421 8.25 7.5V3.75H7ZM9.75 3.75V7.5C9.75 7.88579 10.1142 8.25 10.5 8.25H13.5C13.8858 8.25 14.25 7.88579 14.25 7.5V3.75H9.75ZM16.1499 16C16.1499 15.5858 15.8141 15.25 15.3999 15.25C14.9857 15.25 14.6499 15.5858 14.6499 16V17.6499H13C12.5858 17.6499 12.25 17.9857 12.25 18.3999C12.25 18.8141 12.5858 19.1499 13 19.1499H14.6499V20.9C14.6499 21.3142 14.9857 21.65 15.3999 21.65C15.8141 21.65 16.1499 21.3142 16.1499 20.9V19.1499H17.9C18.3142 19.1499 18.65 18.8141 18.65 18.3999C18.65 17.9857 18.3142 17.6499 17.9 17.6499H16.1499V16Z" fill="black"/>
</svg>
